icons/solid/plus-circle.svg

<svg width="24" height="24" viewBox="0 0 24 24" fill="none" xmlns="http://www.w3.org/2000/svg">
<path fill-rule="evenodd" clip-rule="evenodd" d="M2 12C2 6.47715 6.47715 2 12 2C17.5228 2 22 6.47715 22 12C22 17.5228 17.5228 22 12 22C6.47715 22 2 17.5228 2 12ZM13 9C13 8.44772 12.5523 8 12 8C11.4477 8 11 8.44772 11 9V11H9C8.44772 11 8 11.4477 8 12C8 12.5523 8.44772 13 9 13H11V15C11 15.5523 11.4477 16 12 16C12.5523 16 13 15.5523 13 15V13H15C15.5523 13 16 12.5523 16 12C16 11.4477 15.5523 11 15 11H13V9Z" fill="currentColor"/>
</svg>

<svg width="24" height="24" fill="none" xmlns="http://www.w3.org/2000/svg"><path fill-rule="evenodd" clip-rule="evenodd" d="M2 12C2 6.477 6.477 2 12 2s10 4.477 10 10-4.477 10-10 10S2 17.523 2 12zm11-3a1 1 0 10-2 0v2H9a1 1 0 100 2h2v2a1 1 0 102 0v-2h2a1 1 0 100-2h-2V9z" fill="currentColor"/></svg>
